X:1
T:Title
%%score ( 1 2 ) 3
L:1/8
Q:1/4=91
M:6/8
K:Ab
V:1 treble nm="Grand Piano, Soprano"
V:2 treble 
V:3 bass nm="Choir Pad, Jesus Will Keep Every Promi"
V:1
 [CE][CA][DB] [Ec][Ec][DB] | [CA][DB][DA] [DF] [CE]2 | [CE][Ec][EB] [EA][Ee][Ed] | %3
w: By~H.~O.~Ward * * * * *|||
 [Ec] [EB]2- [EB]2- [EB]/ z/ | [DE][CA][DB] [Ec][Ec][DB] | [CA][DB][DA] [DF] [CE]2 | %6
w: |||
 [Ec][Ee][Ed] [Ec][Ed][Ec] | [DB] [CA]2- [CA]2- [CA]/ z/ | A[Fd][Fd] [Fd][Fd][FA] | %9
w: |||
 [FB][Ec][Ee]- [Ee]2- [Ee]/ z/ | [Ac] A2- A/ z/ [AB]2 | [Ac] [GB]2- [GB]2- [GB]/ z/ | %12
w: |||
 [Ed] [Ec]2- [Ec]2 [EB] | [EA] [DB]2- [DB]3/2 z/ [DA] | [DF] [CE]2- [CE]D-[DF] | %15
w: |||
 [DG] [CA]2- [CA]3- | [CA]3 z3 |] %17
w: ||
V:2
 x6 | x6 | x6 | x6 | x6 | x6 | x6 | x6 | x6 | x6 | x6 | x6 | x6 | x6 | z3 z .E2 | x6 | x6 |] %17
V:3
 [A,,A,][A,,A,][A,,A,] [A,,A,][A,,A,][A,,E,] | [A,,E,][D,F,][D,F,] [D,A,] [A,,A,]2 | %2
 [A,,A,]A,[A,D] [A,C][C,A,][B,,G,] | [A,,A,] [E,G,]2- [E,G,]2- [E,G,]/ z/ | %4
 [E,G,][A,,A,][A,,A,] [A,,A,][A,,A,][A,,E,] | [A,,E,][D,F,][D,F,] [D,A,] [A,,A,]2 | %6
 A,[A,C][A,B,] A,[E,B,][E,A,] | [E,G,] [A,,A,]2- [A,,A,]2- [A,,A,]/ z/ | %8
 A,[D,A,][D,A,] [D,A,][D,A,][D,A,] | [D,A,]A,[K:treble][A,C] [A,C][A,C][A,C] | %10
 [A,E][CE][CE] [CE][K:bass] [B,=D]2 | [B,=D][E,E][E,E] [E,E] [E,E]2 | %12
 [E,G,][A,,A,][A,,A,] [A,,A,][A,,A,][B,,G,] | [C,A,][D,F,][D,F,] [D,F,][D,F,][D,F,] | %14
 [D,F,] [E,A,]2- [E,A,] [E,G,]2 | E, [A,,E,]2- [A,,E,]3- | [A,,E,]3 z3 |] %17

